X: 34340
T: Return To Camden Town, The
R: reel
M: 4/4
K: Cmajor
E2 DE CA, ~A,2|EDCD EGAB|cBcd edeg|aged cAAG|
E2 DE CA, ~A,2|EDCD EGAB|cBcd edeg|aged cAAB|
c2 gc acgc|cdeg aged|cBcd edeg|aged cAAB|
c2 gc acgc|cdeg aged|cBcd edeg|aged cAAG|

